app/images/customer-modal/third-modal/bid.svg

<svg width="100" height="100" viewBox="0 0 100 100" fill="none" xmlns="http://www.w3.org/2000/svg">
<path d="M95 0H5C2.23858 0 0 2.23858 0 5V73.3333C0 76.0948 2.23858 78.3333 5 78.3333H33.3333V85C26.8931 85.0073 21.674 90.2264 21.6667 96.6667C21.6667 98.5076 23.159 100 25 100H75C76.841 100 78.3333 98.5076 78.3333 96.6667C78.326 90.2264 73.1069 85.0073 66.6667 85V78.3333H95C97.7614 78.3333 100 76.0948 100 73.3333V5C100 2.23858 97.7614 0 95 0ZM75 96.6667H25C25.0055 92.0666 28.7332 88.3388 33.3333 88.3333H66.6667C71.2664 88.3398 74.9936 92.067 75 96.6667ZM63.3333 85H36.6667V78.3333H63.3333V85ZM95 75H5C4.07953 75 3.33333 74.2538 3.33333 73.3333V65H60C60.9205 65 61.6667 64.2538 61.6667 63.3333C61.6667 62.4129 60.9205 61.6667 60 61.6667H3.33333V5C3.33333 4.07953 4.07953 3.33333 5 3.33333H95C95.9205 3.33333 96.6667 4.07953 96.6667 5V61.6667H93.3333C92.4129 61.6667 91.6667 62.4129 91.6667 63.3333C91.6667 64.2538 92.4129 65 93.3333 65H96.6667V73.3333C96.6667 74.2538 95.9205 75 95 75Z" fill="#F54BC0"/>
<path d="M57.2201 33.4264L52.2201 30.6164L36.0534 14.4498L33.1867 9.34978C32.5333 8.33958 31.4633 7.67351 30.2684 7.53311C29.2804 7.42032 28.294 7.75748 27.5817 8.45144L15.9151 20.1181C15.218 20.8284 14.8803 21.8164 14.9967 22.8048C15.149 24.0353 15.8524 25.13 16.9084 25.7798L21.9084 28.5898L25.2801 31.9614L10.2901 46.9614C7.68651 49.565 7.68651 53.7862 10.2901 56.3898C12.8936 58.9933 17.1148 58.9933 19.7184 56.3898L34.7084 41.3981L38.0817 44.7715L40.9484 49.8715C41.6012 50.8816 42.6706 51.5477 43.8651 51.6881C43.9901 51.6998 44.1117 51.7065 44.2334 51.7065C45.1002 51.7145 45.9345 51.3768 46.5517 50.7681L58.2184 39.1014C58.9157 38.3919 59.2534 37.4044 59.1367 36.4164C58.9872 35.1797 58.2815 34.0787 57.2201 33.4264ZM44.1301 36.6664L39.4151 41.3815L25.2734 27.2381L34.7017 17.8098L48.8434 31.9514L44.1301 36.6664ZM18.2617 22.4714L29.8651 10.8431H29.8917C30.0628 10.8561 30.2205 10.9401 30.3267 11.0748L32.6301 15.1664L22.6301 25.1664L18.6217 22.9214C18.4629 22.8071 18.3384 22.6515 18.2617 22.4714ZM17.3551 54.0214C16.0531 55.3235 13.9421 55.3235 12.6401 54.0214C11.3381 52.7194 11.3381 50.6085 12.6401 49.3064L27.6301 34.3064L32.3451 39.0215L17.3551 54.0214ZM44.2517 48.3548C44.0704 48.3543 43.8997 48.2692 43.7901 48.1248L41.4867 44.0231L46.4867 39.0231L51.4867 34.0231L55.4867 36.2681C55.6469 36.3851 55.7729 36.5428 55.8517 36.7248L44.2517 48.3548Z" fill="#F54BC0"/>
<path d="M81.4266 55.3332L83 54.0765C83.9093 53.348 84.3722 52.1976 84.2209 51.0424C84.0696 49.8871 83.3262 48.8947 82.26 48.4249L64.68 40.6665C63.4991 40.1465 62.1243 40.3547 61.1503 41.201C60.1763 42.0473 59.7783 43.3796 60.1283 44.6215L65.1516 62.4165C65.455 63.4919 66.277 64.3438 67.3409 64.6854C68.4048 65.0269 69.569 64.8127 70.4416 64.1149L73.5883 61.5965L80.015 68.8715C80.6233 69.5621 81.4901 69.9705 82.41 69.9999H82.5117C83.3959 69.9985 84.2437 69.6474 84.87 69.0232L87.2283 66.6665C88.4653 65.4223 88.53 63.4336 87.3766 62.1115L81.4266 55.3332ZM82.5133 66.6665L75.0366 58.2015C74.4483 57.5354 73.4408 57.4482 72.7466 58.0032L68.36 61.5132L63.3333 43.7182L80.915 51.4682L77.9833 53.8132C77.6279 54.0973 77.404 54.5143 77.3637 54.9676C77.3234 55.4208 77.4702 55.8709 77.77 56.2132L84.8683 64.3098L82.5133 66.6665Z" fill="#F54BC0"/>
<path d="M64.9999 34.9998C65.9204 34.9998 66.6666 34.2536 66.6666 33.3332V28.3332C66.6666 27.4127 65.9204 26.6665 64.9999 26.6665C64.0794 26.6665 63.3333 27.4127 63.3333 28.3332V33.3332C63.3333 34.2536 64.0794 34.9998 64.9999 34.9998Z" fill="#F54BC0"/>
<path d="M72.845 37.8452L77.0117 33.6785C77.6433 33.0246 77.6343 31.9851 76.9914 31.3422C76.3485 30.6993 75.309 30.6902 74.655 31.3219L70.4883 35.4885C70.0551 35.907 69.8813 36.5267 70.0339 37.1094C70.1864 37.6921 70.6415 38.1472 71.2242 38.2997C71.8069 38.4522 72.4266 38.2785 72.845 37.8452Z" fill="#F54BC0"/>
<path d="M49.9999 11.6663H53.3333C54.2537 11.6663 54.9999 10.9201 54.9999 9.99967C54.9999 9.0792 54.2537 8.33301 53.3333 8.33301H49.9999C49.0794 8.33301 48.3333 9.0792 48.3333 9.99967C48.3333 10.9201 49.0794 11.6663 49.9999 11.6663Z" fill="#F54BC0"/>
<path d="M90.0002 8.33301H60.0002C59.0797 8.33301 58.3335 9.0792 58.3335 9.99967C58.3335 10.9201 59.0797 11.6663 60.0002 11.6663H90.0002C90.9206 11.6663 91.6668 10.9201 91.6668 9.99967C91.6668 9.0792 90.9206 8.33301 90.0002 8.33301Z" fill="#F54BC0"/>
<path d="M53.3333 68.3335H46.6667C45.7462 68.3335 45 69.0797 45 70.0002C45 70.9206 45.7462 71.6668 46.6667 71.6668H53.3333C54.2538 71.6668 55 70.9206 55 70.0002C55 69.0797 54.2538 68.3335 53.3333 68.3335Z" fill="#F54BC0"/>
</svg>

<svg width="100" height="100" fill="none" xmlns="http://www.w3.org/2000/svg"><path d="M95 0H5a5 5 0 00-5 5v68.333a5 5 0 005 5h28.333V85c-6.44.007-11.659 5.226-11.666 11.667A3.333 3.333 0 0025 100h50a3.333 3.333 0 003.333-3.333c-.007-6.44-5.226-11.66-11.666-11.667v-6.667H95a5 5 0 005-5V5a5 5 0 00-5-5zM75 96.667H25a8.343 8.343 0 018.333-8.334h33.334A8.345 8.345 0 0175 96.667zM63.333 85H36.667v-6.667h26.666V85zM95 75H5c-.92 0-1.667-.746-1.667-1.667V65H60a1.667 1.667 0 100-3.333H3.333V5c0-.92.747-1.667 1.667-1.667h90c.92 0 1.667.747 1.667 1.667v56.667h-3.334a1.667 1.667 0 000 3.333h3.334v8.333c0 .92-.746 1.667-1.667 1.667z" fill="#F54BC0"/><path d="M57.22 33.426l-5-2.81L36.053 14.45l-2.866-5.1a4.037 4.037 0 00-2.919-1.817 3.312 3.312 0 00-2.686.918L15.915 20.118a3.287 3.287 0 00-.918 2.687 4.082 4.082 0 001.911 2.975l5 2.81 3.372 3.371-14.99 15a6.667 6.667 0 009.428 9.429l14.99-14.992 3.374 3.373 2.866 5.1a4.033 4.033 0 002.917 1.817c.125.012.247.018.368.018a3.259 3.259 0 002.319-.938l11.666-11.667a3.281 3.281 0 00.919-2.685 4.085 4.085 0 00-1.917-2.99zm-13.09 3.24l-4.715 4.716-14.142-14.144 9.429-9.428L48.843 31.95l-4.713 4.715zM18.262 22.471l11.603-11.628h.027a.613.613 0 01.435.232l2.303 4.091-10 10-4.008-2.245a1.072 1.072 0 01-.36-.45zm-.907 31.55a3.334 3.334 0 11-4.715-4.715l14.99-15 4.715 4.716-14.99 15zm26.897-5.666a.582.582 0 01-.462-.23l-2.303-4.102 5-5 5-5 4 2.245c.16.117.286.275.365.457l-11.6 11.63zM81.427 55.333L83 54.077a3.333 3.333 0 00-.74-5.652l-17.58-7.758a3.333 3.333 0 00-4.552 3.954l5.024 17.795a3.334 3.334 0 005.29 1.699l3.146-2.518 6.427 7.274A3.334 3.334 0 0082.41 70h.102a3.348 3.348 0 002.358-.977l2.358-2.356a3.343 3.343 0 00.149-4.556l-5.95-6.778zm1.086 11.334l-7.476-8.465a1.667 1.667 0 00-2.29-.199l-4.387 3.51-5.027-17.795 17.582 7.75-2.932 2.345a1.667 1.667 0 00-.213 2.4l7.098 8.097-2.355 2.356zM65 35c.92 0 1.667-.746 1.667-1.667v-5a1.667 1.667 0 10-3.334 0v5c0 .92.746 1.667 1.667 1.667zM72.845 37.845l4.167-4.166a1.667 1.667 0 00-2.357-2.357l-4.167 4.167a1.667 1.667 0 102.357 2.356zM50 11.666h3.333a1.667 1.667 0 000-3.333H50a1.667 1.667 0 100 3.333zM90 8.333H60a1.667 1.667 0 100 3.333h30a1.667 1.667 0 000-3.333zM53.333 68.334h-6.666a1.667 1.667 0 100 3.333h6.666a1.667 1.667 0 100-3.334z" fill="#F54BC0"/></svg>
